X:1
T:St. Cecilia (Sewall)
T:Frank Sewall (1837-1915)
T:St. Cecilia (Sewall)
T:Public Domain
C:Frank Sewall (1837-1915)
Z:Public Domain
%%score ( 1 2 ) ( 3 4 )
L:1/8
M:3/4
K:G
V:1 treble 
V:2 treble 
V:3 bass 
V:4 bass 
V:1
 [DB]2 [DB]2 [DB]2 | [Ec]4 [Ec]2 | [DA]2 [DA]2 [DA]2 | [DB]6 | [DB]2 [DB]2 [DB]2 | [Dd]4 [Dd]2 | %6
 [G^c]2 [Fc]3 [Ec] | [DB]6 | [DB]2 [DB]2 [DB]2 | [Ec]4 [Ec]2 | [DA]2 [DA]2 [DA]2 | [DB]6 | %12
 [DB]2 [Dd]2 [Ec]2 | [FA]4 [EG]2 | [EF]2 [^DF]3 [DF] | E6 :| [FA]4 G2 | [Gc]2 [FA]3 [FA] | G6 |] %19
V:2
 x6 | x6 | x6 | x6 | x6 | x6 | x6 | x6 | x6 | x6 | x6 | x6 | x6 | x6 | x6 | E6 :| x4 G2 | x6 | %18
 G6 |] %19
V:3
 G,2 G,2 G,2 | [C,G,]4 [C,G,]2 | [D,F,]2 [D,F,]2 [D,F,]2 | [G,,G,]6 | G,2 G,2 G,2 | %5
 [F,B,]4 [F,B,]2 | [E,B,]2 [F,^A,]3 [F,A,] | [B,,B,]6 | G,2 G,2 G,2 | [C,G,]4 [C,G,]2 | %10
 [D,F,]2 [D,F,]2 [D,F,]2 | G,6 | G,2 [B,,G,]2 [C,G,]2 | [D,C]4 [E,B,]2 | [A,,C]2 [B,,B,]3 [B,,A,] | %15
 [E,G,]6 :| [D,C]4 [E,B,]2 | [A,,E]2 [D,-D]2 [D,C-][D,C] | [G,B,]6 |] %19
V:4
 x6 | x6 | x6 | x6 | G,2 G,2 G,2 | x6 | x6 | x6 | x6 | x6 | x6 | x6 | x6 | x6 | x6 | x6 :| x6 | %17
 x6 | x6 |] %19

